assets/images/icons/logout.svg

<svg width="32" height="32" viewBox="0 0 32 32" fill="none" xmlns="http://www.w3.org/2000/svg">
<path d="M20.8471 17.2576C20.6121 17.2377 20.3791 17.3144 20.1991 17.4708C20.0191 17.6273 19.9068 17.8507 19.8869 18.092C19.8082 19.0464 19.7107 19.8765 19.6254 20.3128V20.3181C19.3738 21.6519 18.1441 22.9702 16.8831 23.2601C16.7739 23.2832 16.6643 23.3054 16.5551 23.3266C16.6488 22.0876 16.7186 20.5034 16.7093 19.2818C16.7233 17.4155 16.5495 14.5418 16.3953 13.3982C16.1184 11.2926 14.8583 8.95723 13.4642 7.96483L13.4557 7.95905C12.4864 7.28618 11.4476 6.72566 10.3582 6.28771C10.1639 6.21035 9.97193 6.13812 9.7823 6.07103C10.8164 5.90674 11.8615 5.82624 12.9079 5.83028C14.3325 5.83028 15.6329 5.96365 16.8831 6.23041C18.1441 6.51932 19.3738 7.83867 19.6254 9.17246V9.17776C19.7102 9.61112 19.8077 10.4413 19.8864 11.3927C19.9064 11.6345 20.0191 11.8583 20.1997 12.0147C20.3802 12.1712 20.6139 12.2475 20.8492 12.2269C21.0845 12.2064 21.3023 12.0906 21.4545 11.9051C21.6068 11.7196 21.6811 11.4795 21.6611 11.2377C21.5758 10.2077 21.4708 9.32703 21.3724 8.82048C20.9839 6.76875 19.2168 4.88651 17.2618 4.44159L17.2505 4.43918C15.8766 4.14642 14.4567 4.00293 12.9046 4.00004C11.3526 3.99715 9.93834 4.1445 8.56438 4.43966L8.55267 4.44207C7.68012 4.64094 6.84553 5.1263 6.15386 5.78453C5.96693 5.92937 5.80354 6.10376 5.66979 6.3012C5.05872 7.03406 4.61495 7.9109 4.4425 8.82048C4.22647 9.93325 3.98233 12.819 4.00107 14.745C3.99076 15.7783 4.0559 17.0881 4.15243 18.2519C4.20398 18.9982 4.26255 19.6483 4.31879 20.0653C4.59574 22.1709 5.85582 24.5063 7.2504 25.4987L7.25837 25.5044C8.22791 26.1772 9.26688 26.7377 10.3563 27.1758C11.4594 27.6159 12.4716 27.8826 13.4515 27.9915H13.4599C14.7767 28.1123 15.9736 26.9379 16.3358 25.2208C16.6423 25.1708 16.9461 25.1138 17.2472 25.0499L17.2585 25.0475C19.214 24.6026 20.9806 22.7203 21.3691 20.6686C21.4675 20.1611 21.573 19.2785 21.6582 18.2461C21.6781 18.0045 21.6038 17.7647 21.4517 17.5794C21.2996 17.394 21.0822 17.2783 20.8471 17.2576Z" fill="#CB1520"/>
<path d="M28.0001 14.7433C28.0001 14.7129 28.0001 14.6826 27.9954 14.6522C27.9956 14.6503 27.9956 14.6484 27.9954 14.6465C27.9926 14.618 27.9884 14.5897 27.9827 14.5617V14.5555C27.9476 14.3816 27.8637 14.2221 27.7414 14.0966L24.5549 10.8194C24.3879 10.6478 24.1614 10.5513 23.9252 10.5513C23.6891 10.5512 23.4625 10.6476 23.2955 10.8192C23.1285 10.9907 23.0346 11.2235 23.0345 11.4661C23.0345 11.7088 23.1283 11.9416 23.2953 12.1132L24.9668 13.8303H18.82C18.5839 13.8303 18.3574 13.9267 18.1905 14.0983C18.0235 14.2698 17.9297 14.5025 17.9297 14.7452C17.9297 14.9878 18.0235 15.2205 18.1905 15.3921C18.3574 15.5637 18.5839 15.6601 18.82 15.6601H24.9588L23.2887 17.3762C23.1223 17.5479 23.029 17.7804 23.0292 18.0227C23.0295 18.265 23.1233 18.4973 23.29 18.6687C23.4567 18.84 23.6828 18.9364 23.9187 18.9366C24.1545 18.9369 24.3808 18.841 24.5478 18.67L27.7199 15.4106C27.8349 15.2999 27.919 15.1596 27.9635 15.0042C27.9716 14.9765 27.9782 14.9484 27.9832 14.92C27.9834 14.916 27.9834 14.9119 27.9832 14.9079C27.9874 14.8834 27.9917 14.8598 27.994 14.8338C27.9963 14.8078 27.994 14.7962 27.994 14.7779C27.994 14.7673 27.994 14.7567 27.994 14.7461L28.0001 14.7433Z" fill="#CB1520"/>
</svg>

<svg xmlns="http://www.w3.org/2000/svg" width="32" height="32" fill="none"><path fill="#CB1520" d="M20.847 17.258a.88.88 0 0 0-.648.213.92.92 0 0 0-.312.621c-.079.954-.176 1.785-.262 2.22v.006c-.251 1.334-1.48 2.652-2.742 2.942l-.328.067c.094-1.24.164-2.824.154-4.045.014-1.866-.16-4.74-.314-5.884-.277-2.105-1.537-4.44-2.93-5.433l-.01-.006a15.7 15.7 0 0 0-3.673-1.888 19.4 19.4 0 0 1 3.126-.24c1.425 0 2.725.133 3.975.4 1.261.288 2.49 1.608 2.742 2.941v.006c.085.433.183 1.263.261 2.215.02.241.133.465.314.622a.874.874 0 0 0 1.255-.11.93.93 0 0 0 .206-.667c-.085-1.03-.19-1.911-.289-2.418-.388-2.051-2.155-3.933-4.11-4.378l-.012-.003A20.8 20.8 0 0 0 12.906 4a20.2 20.2 0 0 0-4.34.44l-.012.002c-.873.199-1.707.684-2.4 1.343-.186.144-.35.319-.483.516-.611.733-1.055 1.61-1.227 2.52-.217 1.112-.46 3.998-.442 5.924-.01 1.033.055 2.343.151 3.507.052.746.11 1.396.167 1.813.277 2.106 1.537 4.441 2.931 5.434l.008.005c.97.673 2.009 1.234 3.098 1.672 1.103.44 2.116.707 3.095.816h.009c1.317.12 2.514-1.054 2.876-2.771q.46-.075.911-.171l.012-.003c1.955-.444 3.722-2.327 4.11-4.378.099-.508.204-1.39.29-2.423a.93.93 0 0 0-.207-.667.88.88 0 0 0-.605-.321"/><path fill="#CB1520" d="M28 14.743q.001-.045-.005-.09v-.007l-.012-.084v-.006a.9.9 0 0 0-.242-.46l-3.186-3.277a.88.88 0 0 0-.63-.268.88.88 0 0 0-.63.268.93.93 0 0 0 0 1.294l1.672 1.717H18.82a.88.88 0 0 0-.63.268.93.93 0 0 0-.26.647c0 .243.093.476.26.647a.88.88 0 0 0 .63.268h6.139l-1.67 1.716a.93.93 0 0 0 .001 1.293.88.88 0 0 0 .629.268.88.88 0 0 0 .629-.267l3.172-3.26a.9.9 0 0 0 .263-.502q.007-.036.011-.074c.002-.026 0-.038 0-.056v-.032z"/></svg>
